_includes/icons/color-business-report.svg

<svg fill="#666" height="50" viewBox="0 0 48 48" width="50" xmlns="http://www.w3.org/2000/svg"><path d="m40 45h-32v-42h22l10 10z" fill="#90caf9"/><path d="m38.5 14h-9.5v-9.5z" fill="#e1f5fe"/><path d="m24 20c-4.949 0-9 4.051-9 9s4.051 9 9 9c2.6 0 4.949-1.1 6.551-2.849l-6.551-6.151z" fill="#1976d2"/><path d="m33 29c0-4.949-4.051-9-9-9v9z" fill="#f9a825"/><path d="m24 29 6.551 6.151c1.5-1.6 2.449-3.751 2.449-6.151z" fill="#dd2c00"/></svg>

<svg xmlns="http://www.w3.org/2000/svg" viewBox="0 0 48 48" width="50" height="50" fill="#666"><path fill="#90caf9" d="M40 45L8 45 8 3 30 3 40 13z"/><path fill="#e1f5fe" d="M38.5 14L29 14 29 4.5z"/><path d="M24,20c-4.949,0-9,4.051-9,9s4.051,9,9,9c2.6,0,4.949-1.1,6.551-2.849L24,29V20z" fill="#1976d2"/><path d="M33,29c0-4.949-4.051-9-9-9v9H33z" fill="#f9a825"/><path d="M24,29l6.551,6.151C32.051,33.551,33,31.4,33,29H24z" fill="#dd2c00"/></svg>
